X:114
T:We'll all be Married
M:C
L:1/8
B:Thompson's Compleat Collection of 200 Favourite Country Dances, vol. 2 (London, 1765)
Z:Transcribed and edited by Flynn Titford-Mock, 2007
Z:abc's:AK/Fiddler's Companion
K:G
B>GB>G d>dd>d | c>Ac>A e>ee>e | B>Gd>G e>f g2 | f>aA>^c d2D2 :|
|: d>Bd>B e>ee>e | c>Ac>A d>dd>d | B>GB>G c>cc>c | A>GF>E D4 |
G>dB>G d>dd>d | c>Ac>A e>ee>e | d>Bd>B g2 fe | d>cB>A G4 :|

